boxicons/svg/regular/bx-first-aid.svg

<svg xmlns="http://www.w3.org/2000/svg" width="24" height="24" viewBox="0 0 24 24"><path d="M20 6h-3V4c0-1.103-.897-2-2-2H9c-1.103 0-2 .897-2 2v2H4c-1.103 0-2 .897-2 2v10c0 1.103.897 2 2 2h16c1.103 0 2-.897 2-2V8c0-1.103-.897-2-2-2zM9 4h6v2H9V4zM4 18V8h16l.001 10H4z"/><path d="M13 9h-2v3H8v2h3v3h2v-3h3v-2h-3z"/></svg>

<svg xmlns="http://www.w3.org/2000/svg" width="24" height="24" viewBox="0 0 24 24"><path d="M20,6h-3V4c0-1.103-0.897-2-2-2H9C7.897,2,7,2.897,7,4v2H4C2.897,6,2,6.897,2,8v10c0,1.103,0.897,2,2,2h16 c1.103,0,2-0.897,2-2V8C22,6.897,21.103,6,20,6z M9,4h6v2H9V4z M4,18V8h4h8h4l0.001,10H4z"/><path d="M13 9L11 9 11 12 8 12 8 14 11 14 11 17 13 17 13 14 16 14 16 12 13 12z"/></svg>
